static/assets/images/exchanges/bancor.svg

<svg width="168" height="256" viewBox="0 0 168 256" fill="none" xmlns="http://www.w3.org/2000/svg">
<path fill-rule="evenodd" clip-rule="evenodd" d="M74.0734 0L134.555 34.4643L74.0734 68.9287L13.5922 34.4643L74.0734 0ZM147.999 54.8325V123.791L86.325 158.902V89.9738L147.999 54.8325ZM168 140.599L86.325 187.042V256L168 209.557V140.599ZM0 123.76V54.8315L61.6437 89.973V158.901L0 123.76ZM0 151.891V220.849L61.6437 255.961V187.033L0 151.891Z" fill="white"/>
</svg>

<svg xmlns="http://www.w3.org/2000/svg" fill="none" viewBox="0 0 168 256"><path fill="#fff" fill-rule="evenodd" d="m74.073 0 60.482 34.464L74.073 68.93l-60.48-34.465zM148 54.833v68.958l-61.674 35.111V89.974zm20 85.766-81.675 46.443V256L168 209.557zM0 123.76V54.831l61.644 35.142v68.928zm0 28.131v68.958l61.644 35.112v-68.928z" clip-rule="evenodd"/></svg>
